Obsidian-SemiLight/actions/16s/akonadi-phone-home.svg

<svg viewBox="0 0 16 16" xmlns="http://www.w3.org/2000/svg"><path d="m8 2.0019531-6 5.9980469v.0019531 1.4140625 3.5839844 1h12v-1-3.5839844-1.4140625-.0019531h-.001953l-.998047-1v-2-1h-3zm0 1.4140625 5 5v4.5839844h-4v-3h-2v3h-4v-4.5839844z" fill="#4d4d4d"/></svg>

<svg xmlns="http://www.w3.org/2000/svg" viewBox="0 0 16 16">
  <defs id="defs3051">
    <style type="text/css" id="current-color-scheme">
      .ColorScheme-Text {
        color:#4d4d4d;
      }
      </style>
  </defs>
 <path style="fill:currentColor;fill-opacity:1;stroke:none" 
     d="M 8 2.0019531 L 2 8 L 2 8.0019531 L 2 9.4160156 L 2 13 L 2 14 L 14 14 L 14 13 L 14 9.4160156 L 14 8.0019531 L 14 8 L 13.998047 8 L 13 7 L 13 5 L 13 4 L 10 4 L 8 2.0019531 z M 8 3.4160156 L 13 8.4160156 L 13 13 L 9 13 L 9 10 L 7 10 L 7 13 L 3 13 L 3 8.4160156 L 8 3.4160156 z "
     class="ColorScheme-Text"
     />
</svg>
